src/svg/scalable.svg

<?xml version="1.0" encoding="UTF-8"?>
<svg width="440px" height="330px" viewBox="0 0 440 330" version="1.1" xmlns="http://www.w3.org/2000/svg" xmlns:xlink="http://www.w3.org/1999/xlink">
    <!-- Generator: Sketch 59.1 (86144) - https://sketch.com -->
    <title>Graphic elements / Rich icons / Scalable</title>
    <desc>Created with Sketch.</desc>
    <g id="Graphic-elements-/-Rich-icons-/-Scalable" stroke="none" stroke-width="1" fill="none" fill-rule="evenodd">
        <g id="bannerAsset-220" transform="translate(59.000000, 30.000000)" fill-rule="nonzero">
            <rect id="Rectangle" fill="#0099DA" x="39" y="0" width="282" height="300" rx="4.04"></rect>
            <path d="M165.96,178 C168.19123,178 170,179.80877 170,182.04 L170,295.96 C170,298.19123 168.19123,300 165.96,300 L52.04,300 C49.8087696,300 48,298.19123 48,295.96 L48,182.04 C48,179.80877 49.8087696,178 52.04,178 L121.234,177.99909 L73.2441472,226.163229 L82.0312955,234.982345 L90.8296519,243.812709 L156.4,177.99909 L165.96,178 Z" id="Combined-Shape" fill="#005BBA"></path>
            <polygon id="Path" fill="#FFFFFF" points="251.710682 42.4916525 238.608416 44.6739336 225.494942 46.8562147 228.319382 49.6571838 231.143823 52.4694017 233.968264 55.2816196 236.792704 58.0938375 237.779017 59.0724894 238.754121 60.0511412 229.541065 69.2977137 73.2441472 226.163229 82.0312955 234.982345 90.8296519 243.812709 247.160194 86.9021979 256.406874 77.6218788 257.325938 78.5330374 258.256211 79.4554449 261.103067 82.2901605 263.961132 85.1361251 266.819197 87.9820896 269.666054 90.8168053 271.728344 77.6443765 273.801842 64.4719478 275.864131 51.299519 277.926421 38.1270903 264.824156 40.3093714"></polygon>
            <rect id="Rectangle" fill="#023852" x="16" y="167" width="133" height="133" rx="4.04"></rect>
            <polygon id="Path" fill="#ADC0CB" points="103.254509 191.640412 94.1794224 193.140639 85.1155535 194.640865 87.0674262 196.577725 89.019299 198.514585 90.9711718 200.451445 92.9342622 202.37711 93.6073218 203.048853 94.291599 203.731792 87.9087507 210.090962 24.0802676 273.805818 30.1602391 279.8739 36.2514282 285.953177 100.102347 222.21593 106.50763 215.823172 107.147037 216.450133 107.786444 217.088289 109.760752 219.036345 111.73506 220.995596 113.709368 222.954847 115.683676 224.914099 117.119536 215.845564 118.544179 206.777029 119.98004 197.697298 121.404682 188.628763 112.329596 190.140185"></polygon>
            <rect id="Rectangle" fill="#003A5D" style="mix-blend-mode: multiply;" x="19" y="247" width="53" height="53" rx="4.04"></rect>
            <rect id="Rectangle" fill="#FFE700" x="0" y="243" width="57" height="57" rx="4.04"></rect>
        </g>
    </g>
</svg>

<svg width="440" height="330" xmlns="http://www.w3.org/2000/svg"><g transform="translate(59 30)" fill-rule="nonzero" fill="none"><rect fill="#0099DA" x="39" width="282" height="300" rx="4.04"/><path d="M165.96 178a4.04 4.04 0 014.04 4.04v113.92a4.04 4.04 0 01-4.04 4.04H52.04a4.04 4.04 0 01-4.04-4.04V182.04a4.04 4.04 0 014.04-4.04h69.194l-47.99 48.163 8.787 8.82 8.799 8.83 65.57-65.814 9.56.001z" fill="#005BBA"/><path fill="#FFF" d="M251.71 42.492l-13.102 2.182-13.113 2.182 2.824 2.801 2.825 2.812 2.824 2.813 2.825 2.812.986.978.975.98-9.213 9.246L73.244 226.163l8.787 8.82 8.799 8.83 156.33-156.91 9.247-9.281.919.911.93.922 2.847 2.835 2.858 2.846 2.858 2.846 2.847 2.835 2.062-13.173 2.074-13.172 2.062-13.172 2.062-13.173-13.102 2.182z"/><rect fill="#023852" x="16" y="167" width="133" height="133" rx="4.04"/><path fill="#ADC0CB" d="M103.255 191.64l-9.076 1.5-9.063 1.5 1.951 1.938 1.952 1.937 1.952 1.936 1.963 1.926.673.672.685.683-6.383 6.359-63.829 63.715 6.08 6.068 6.091 6.08 63.851-63.738 6.406-6.393.639.627.64.638 1.974 1.948 1.974 1.96 1.974 1.959 1.975 1.96 1.436-9.07 1.424-9.068 1.436-9.08 1.425-9.068-9.075 1.511z"/><rect fill="#003A5D" style="mix-blend-mode:multiply" x="19" y="247" width="53" height="53" rx="4.04"/><rect fill="#FFE700" y="243" width="57" height="57" rx="4.04"/></g></svg>
